icons/inbox-plus-outline.svg

<svg xmlns="http://www.w3.org/2000/svg" width="24" height="24" viewBox="0 0 24 24">
  <path d="M19,2 C20.5976809,2 21.9036609,3.24891996 21.9949073,4.82372721 L22,5 L22,19 C22,20.5976809 20.75108,21.9036609 19.1762728,21.9949073 L19,22 L5,22 C3.40231912,22 2.09633912,20.75108 2.00509269,19.1762728 L2,19 L2,5 C2,3.40231912 3.24891996,2.09633912 4.82372721,2.00509269 L5,2 L19,2 Z M19,4 L5,4 C4.48716416,4 4.06449284,4.38604019 4.00672773,4.88337887 L4,5 L4,14 L6,14 C7.1045695,14 8,14.8954305 8,16 C8,17.1045695 8.8954305,18 10,18 L14,18 C15.1045695,18 16,17.1045695 16,16 C16,14.8954305 16.8954305,14 18,14 L20,14 L20,5 C20,4.48716416 19.6139598,4.06449284 19.1166211,4.00672773 L19,4 Z M12,6 C12.5128358,6 12.9355072,6.38604019 12.9932723,6.88337887 L13,7 L12.999,9 L15,9 C15.5522847,9 16,9.44771525 16,10 C16,10.5128358 15.6139598,10.9355072 15.1166211,10.9932723 L15,11 L12.999,11 L13,13 C13,13.5522847 12.5522847,14 12,14 C11.4871642,14 11.0644928,13.6139598 11.0067277,13.1166211 L11,13 L10.999,11 L9,11 C8.44771525,11 8,10.5522847 8,10 C8,9.48716416 8.38604019,9.06449284 8.88337887,9.00672773 L9,9 L10.999,9 L11,7 C11,6.44771525 11.4477153,6 12,6 Z"/>
</svg>

<svg xmlns="http://www.w3.org/2000/svg" viewBox="0 0 24 24">
  <path d="M19 2a3 3 0 0 1 3 2.82V19a3 3 0 0 1-2.82 3H5a3 3 0 0 1-3-2.82V5a3 3 0 0 1 2.82-3H19zm0 2H5a1 1 0 0 0-1 .88V14h2a2 2 0 0 1 2 2c0 1.1.9 2 2 2h4a2 2 0 0 0 2-2c0-1.1.9-2 2-2h2V5a1 1 0 0 0-.88-1H19zm-7 2a1 1 0 0 1 1 .88V9h2a1 1 0 0 1 .12 2H13v2a1 1 0 0 1-2 .12V11H9a1 1 0 0 1-.12-2H11V7a1 1 0 0 1 1-1z"/>
</svg>
